SVG/file-image-o.svg

<?xml version="1.0" encoding="utf-8"?>
<!-- Generated by IcoMoon.io -->
<!DOCTYPE svg PUBLIC "-//W3C//DTD SVG 1.1//EN" "http://www.w3.org/Graphics/SVG/1.1/DTD/svg11.dtd">
<svg version="1.1" xmlns="http://www.w3.org/2000/svg" xmlns:xlink="http://www.w3.org/1999/xlink" width="12" height="14" viewBox="0 0 12 14">
<path fill="#444444" d="M11.469 2.969q0.219 0.219 0.375 0.594t0.156 0.688v9q0 0.312-0.219 0.531t-0.531 0.219h-10.5q-0.312 0-0.531-0.219t-0.219-0.531v-12.5q0-0.312 0.219-0.531t0.531-0.219h7q0.312 0 0.688 0.156t0.594 0.375zM8 1.062v2.937h2.937q-0.078-0.227-0.172-0.32l-2.445-2.445q-0.094-0.094-0.32-0.172zM11 13v-8h-3.25q-0.312 0-0.531-0.219t-0.219-0.531v-3.25h-6v12h10zM10 9.5v2.5h-8v-1.5l1.5-1.5 1 1 3-3zM3.5 8q-0.625 0-1.062-0.438t-0.438-1.062 0.438-1.062 1.062-0.438 1.062 0.438 0.438 1.062-0.438 1.062-1.062 0.438z"></path>
</svg>

<svg xmlns="http://www.w3.org/2000/svg" viewBox="0 0 12 14"><path d="M11.47 2.97q.218.218.374.593T12 4.25v9q0 .313-.22.532t-.53.22H.75q-.312 0-.53-.22t-.22-.53V.75Q0 .438.22.22T.75 0h7q.312 0 .688.157t.594.375zM8 1.06V4h2.937q-.078-.228-.172-.32L8.32 1.233Q8.226 1.14 8 1.062zM11 13V5H7.75q-.312 0-.53-.22T7 4.25V1H1v12h10zm-1-3.5V12H2v-1.5L3.5 9l1 1 3-3zM3.5 8q-.625 0-1.062-.438T2 6.5t.438-1.062T3.5 5t1.062.438T5 6.5t-.438 1.062T3.5 8z" /></svg>
